Origami/64x64/apps/geany.svg

<svg width="64" height="64" version="1" xmlns="http://www.w3.org/2000/svg">
 <path d="m21.5997 17.000889c-1.439972 0-2.59995 1.189378-2.59995 2.666549 3.254487 10.603829-2.448953 17.672836-5.1999 10.366977-0.933282-2.434353-2.227757-4.042922-5.1998995-3.999923h-1.299975c-0.7201862 0-1.299975 0.594648-1.299975 1.333314v2.366618c0 0.738646 0.5807622 1.228226 1.299975 1.265657h1.7000245v3.334355c0 10.665645 0 10.665645 4.79985 10.666394 5.20015-7.49e-4 5.1999 3.072541 5.1999 9.333221 0 1.475971 1.159978 2.665949 2.59995 2.665949h25.9995c1.439972 0 2.401736-1.189978 2.4008-2.665949v-1.333974h6.699025c0.719986 0 1.299975-0.593989 1.299975-1.333975v-23.265552c0-0.737986-0.583989-1.327974-1.299975-1.399973h-6.699025v-7.333259c0-1.477171-0.960828-2.666548-2.4008-2.666548zm28.4003 13.999731h4.099075v17.999654h-4.099075z" style="opacity:.2"/>
 <path d="m30.0062 10.870627c-6.027883 0.648715-9.703538 2.743866-9.706275 5.130102 0.0051 0.113881 0.01977 0.22767 0.044 0.341193 0.365993-0.211796 0.779985-0.341193 1.227977-0.341193h25.45351c0.453831 0 0.872183 0.132623 1.240396 0.348953 0.02133-0.116158 0.03267-0.232552 0.034-0.348993-6e-3 -2.385485-4.280566-4.479332-10.306808-5.127502 7e-3 -1.873187-1.993-2.873187-3.993-2.8723445s-4 0.9991575-3.9938 2.8697845z" style="fill:#fecd38"/>
 <path d="m21.572266 15.001953c-0.411911 0-0.791225 0.116575-1.134766 0.298828a13.999731 5.3332973 0 0 0 -0.136719 0.699219 13.999731 5.3332973 0 0 0 0.042969 0.341797c0.365993-0.211796 0.780524-0.341797 1.228516-0.341797h25.453125c0.453831 0 0.872021 0.133279 1.240234 0.349609a13.999731 5.3332973 0 0 0 0.035156 -0.349609 13.999731 5.3332973 0 0 0 -0.138672 -0.695312c-0.343754-0.183512-0.722824-0.302735-1.136718-0.302735h-25.453125z" style="opacity:.2"/>
 <path d="m21.5997 16.000808c-1.439972 0-2.59995 1.189378-2.59995 2.666549 3.254487 10.603829-2.448953 17.672836-5.1999 10.366977-0.933282-2.434353-2.227757-4.042922-5.1998995-3.999923h-1.299975c-0.7201862 0-1.299975 0.594648-1.299975 1.333314v2.366618c0 0.738646 0.5807622 1.228226 1.299975 1.265657h1.7000245v3.334355c0 10.665645 0 10.665645 4.79985 10.666394 5.20015-7.49e-4 5.1999 3.072541 5.1999 9.333221 0 1.475971 1.159978 2.665949 2.59995 2.665949h25.9995c1.439972 0 2.401736-1.189978 2.4008-2.665949v-1.333974h6.699025c0.719986 0 1.299975-0.593989 1.299975-1.333975v-23.265552c0-0.737986-0.583989-1.327974-1.299975-1.399973h-6.699025v-7.333259c0-1.477171-0.960828-2.666548-2.4008-2.666548zm28.4003 13.999731h4.099075v17.999654h-4.099075z" style="fill:#fec006"/>
 <rect transform="matrix(.6 -.8 .6 .8 0 0)" x="-2.92" y="39.58" width="5" height="5" style="fill:#e82d2d"/>
 <rect transform="matrix(.55470017 -.83205031 .55470017 .83205031 0 0)" x="6.62" y="47.48" width="7.212" height="7.212" style="fill:#e82d2d"/>
 <rect transform="matrix(.6 -.8 .6 .8 0 0)" x="12.08" y="54.58" width="5" height="5" style="fill:#e82d2d"/>
 <path d="m21.599609 16c-1.439972 0-2.599609 1.190798-2.599609 2.667969 0.035597 0.115983 0.056375 0.224721 0.089844 0.339843 0.286287-1.154075 1.293295-2.007812 2.509765-2.007812h26c1.439972 0 2.400391 1.190798 2.400391 2.667969v-1c0-1.477171-0.960419-2.667969-2.400391-2.667969h-26zm-14.298828 9.035156c-0.7201861 0-1.3007812 0.593365-1.3007812 1.332032v1c0-0.738667 0.5805951-1.332032 1.3007812-1.332032h1.2988282c2.9721426-0.042999 4.2678896 1.565647 5.2011716 4 2.246983 5.96745 6.458219 2.339419 6.154297-4.966797-0.104879 6.614572-4.013832 9.651362-6.154297 3.966797-0.933282-2.434353-2.229029-4.042999-5.2011716-4h-1.2988282zm42.699219 0.964844v1h6.699219c0.715986 0.071999 1.298828 0.662405 1.298828 1.400391v-1c0-0.737986-0.582842-1.328392-1.298828-1.400391h-6.699219zm0 22v1h4.099609v-1h-4.099609z" style="fill:#ffffff;opacity:.2"/>
 <path d="m34 8c-2 8.425e-4 -4.000341 1.0004668-3.994141 2.871094-6.027883 0.648715-9.702341 2.74267-9.705078 5.128906 0.0051 0.113881 0.018739 0.228274 0.042969 0.341797 0.022681-0.013125 0.04922-0.018769 0.072266-0.03125 0.640263-2.090972 4.152579-3.8543 9.589843-4.439453-0.0062-1.870627 1.994141-2.8682984 3.994141-2.8691409s3.999187 0.9979068 3.992188 2.8710939c5.430827 0.584128 9.428451 2.343938 10.171874 4.431641 0.032631 0.017447 0.069675 0.026187 0.101563 0.044921 0.02133-0.116158 0.033826-0.233168 0.035156-0.349609-6e-3 -2.385485-4.282351-4.478783-10.308593-5.126953 0.006999-1.8731871-1.992188-2.8738895-3.992188-2.873047z" style="fill:#ffffff;opacity:.1"/>
</svg>

<svg xmlns="http://www.w3.org/2000/svg" width="64" height="64" version="1">
 <path style="opacity:0.2" d="m 21.5997,17.000889 c -1.439972,0 -2.59995,1.189378 -2.59995,2.666549 3.254487,10.603829 -2.448953,17.672836 -5.1999,10.366977 -0.933282,-2.434353 -2.227757,-4.042922 -5.1998995,-3.999923 l -1.299975,0 c -0.7201862,0 -1.299975,0.594648 -1.299975,1.333314 l 0,2.366618 c 0,0.738646 0.5807622,1.228226 1.299975,1.265657 l 1.7000245,0 0,3.334355 C 9,45.000081 9,45.000081 13.79985,45.00083 19,45.000081 18.99975,48.073371 18.99975,54.334051 18.99975,55.810022 20.159728,57 21.5997,57 l 25.9995,0 C 49.039172,57 50.000936,55.810022 50,54.334051 l 0,-1.333974 6.699025,0 c 0.719986,0 1.299975,-0.593989 1.299975,-1.333975 l 0,-23.265552 c 0,-0.737986 -0.583989,-1.327974 -1.299975,-1.399973 l -6.699025,0 0,-7.333259 C 50,18.190147 49.039172,17.00077 47.5992,17.00077 Z M 50,31.00062 l 4.099075,0 0,17.999654 -4.099075,0 z"/>
 <path style="fill:#fecd38" d="m 30.0062,10.870627 c -6.027883,0.648715 -9.703538,2.743866 -9.706275,5.130102 0.0051,0.113881 0.01977,0.22767 0.044,0.341193 0.365993,-0.211796 0.779985,-0.341193 1.227977,-0.341193 l 25.45351,0 c 0.453831,0 0.872183,0.132623 1.240396,0.348953 0.02133,-0.116158 0.03267,-0.232552 0.034,-0.348993 C 48.293808,13.615204 44.019242,11.521357 37.993,10.873187 38,9 36,8 34,8.0008425 32,8.001685 30,9 30.0062,10.870627 Z"/>
 <path style="opacity:0.2" d="M 21.572266 15.001953 C 21.160355 15.001953 20.781041 15.118528 20.4375 15.300781 A 13.999731 5.3332973 0 0 0 20.300781 16 A 13.999731 5.3332973 0 0 0 20.34375 16.341797 C 20.709743 16.130001 21.124274 16 21.572266 16 L 47.025391 16 C 47.479222 16 47.897412 16.133279 48.265625 16.349609 A 13.999731 5.3332973 0 0 0 48.300781 16 A 13.999731 5.3332973 0 0 0 48.162109 15.304688 C 47.818355 15.121176 47.439285 15.001953 47.025391 15.001953 L 21.572266 15.001953 z"/>
 <path style="fill:#fec006" d="m 21.5997,16.000808 c -1.439972,0 -2.59995,1.189378 -2.59995,2.666549 3.254487,10.603829 -2.448953,17.672836 -5.1999,10.366977 -0.933282,-2.434353 -2.227757,-4.042922 -5.1998995,-3.999923 l -1.299975,0 c -0.7201862,0 -1.299975,0.594648 -1.299975,1.333314 l 0,2.366618 c 0,0.738646 0.5807622,1.228226 1.299975,1.265657 L 9,30 9,33.334355 C 9,44 9,44 13.79985,44.000749 19,44 18.99975,47.07329 18.99975,53.33397 c 0,1.475971 1.159978,2.665949 2.59995,2.665949 l 25.9995,0 c 1.439972,0 2.401736,-1.189978 2.4008,-2.665949 l 0,-1.333974 6.699025,0 c 0.719986,0 1.299975,-0.593989 1.299975,-1.333975 l 0,-23.265552 c 0,-0.737986 -0.583989,-1.327974 -1.299975,-1.399973 l -6.699025,0 0,-7.333259 c 0,-1.477171 -0.960828,-2.666548 -2.4008,-2.666548 z M 50,30.000539 l 4.099075,0 0,17.999654 -4.099075,0 z"/>
 <rect style="fill:#e82d2d" width="5" height="5" x="-2.92" y="39.58" transform="matrix(0.6,-0.8,0.6,0.8,0,0)"/>
 <rect style="fill:#e82d2d" width="7.212" height="7.212" x="6.62" y="47.48" transform="matrix(0.55470017,-0.83205031,0.55470017,0.83205031,0,0)"/>
 <rect style="fill:#e82d2d" width="5" height="5" x="12.08" y="54.58" transform="matrix(0.6,-0.8,0.6,0.8,0,0)"/>
 <path style="fill:#ffffff;opacity:0.2" d="M 21.599609 16 C 20.159637 16 19 17.190798 19 18.667969 C 19.035597 18.783952 19.056375 18.89269 19.089844 19.007812 C 19.376131 17.853737 20.383139 17 21.599609 17 L 47.599609 17 C 49.039581 17 50 18.190798 50 19.667969 L 50 18.667969 C 50 17.190798 49.039581 16 47.599609 16 L 21.599609 16 z M 7.3007812 25.035156 C 6.5805951 25.035156 6 25.628521 6 26.367188 L 6 27.367188 C 6 26.628521 6.5805951 26.035156 7.3007812 26.035156 L 8.5996094 26.035156 C 11.571752 25.992157 12.867499 27.600803 13.800781 30.035156 C 16.047764 36.002606 20.259 32.374575 19.955078 25.068359 C 19.850199 31.682931 15.941246 34.719721 13.800781 29.035156 C 12.867499 26.600803 11.571752 24.992157 8.5996094 25.035156 L 7.3007812 25.035156 z M 50 26 L 50 27 L 56.699219 27 C 57.415205 27.071999 57.998047 27.662405 57.998047 28.400391 L 57.998047 27.400391 C 57.998047 26.662405 57.415205 26.071999 56.699219 26 L 50 26 z M 50 48 L 50 49 L 54.099609 49 L 54.099609 48 L 50 48 z"/>
 <path style="fill:#ffffff;opacity:0.1" d="M 34 8 C 32 8.0008425 29.999659 9.0004668 30.005859 10.871094 C 23.977976 11.519809 20.303518 13.613764 20.300781 16 C 20.305881 16.113881 20.31952 16.228274 20.34375 16.341797 C 20.366431 16.328672 20.39297 16.323028 20.416016 16.310547 C 21.056279 14.219575 24.568595 12.456247 30.005859 11.871094 C 29.999659 10.000467 32 9.0027956 34 9.0019531 C 36 9.0011106 37.999187 9.9998599 37.992188 11.873047 C 43.423015 12.457175 47.420639 14.216985 48.164062 16.304688 C 48.196693 16.322135 48.233737 16.330875 48.265625 16.349609 C 48.286955 16.233451 48.299451 16.116441 48.300781 16 C 48.294781 13.614515 44.01843 11.521217 37.992188 10.873047 C 37.999187 8.9998599 36 7.9991575 34 8 z"/>
</svg>
